X:1
T: FF6 Victory Song
Z: Devire, rearranged by Derreck
M: 4/4
L: 1/8
Q:1/4=137
K:G
d2/3d2/3d2/3 d2 _B2 =c2|d/2zc/2 d6|
A2 G2 A2 Gc-|cc B2 cB2B|A2 G2 F2 GE-|E6- Ez|
A2 G2 A2 Gc-|cc B2 cB2B|A2 G2 A2 cd-|d6- dz|
A2 G2 A2 Gc-|cc B2 cB2B|A2 G2 F2 GE-|E6- Ez|
A2 G2 A2 Gc-|cc B2 cB2B|A2 G2 A2 cd-|d6- dz|
A2 G2 A2 Gc-|cc B2 cB2B|A2 G2 F2 GE-|E6- Ez|
A2 G2 A2 Gc-|cc B2 cB2B|A2 G2 A2 cd-|d6- dz
Europe - The Final Countdown 10/10 brilliant version of it!
